X: 20076
T: Jimmy McNelis's Highland
R: strathspey
M: 4/4
K: Bminor
|:d<Bf>B d<fB>d|(3cBA e>A c>eA>c|d<Bf>B d<fB>d|(3cBA B>c d>AB>c:|
|:d2f>d a>df>e|d>ef>d c>eB>c|d2f>d a>df>d|c>eB>c d>AB>c:|

